assets/v1/icons/dart_light.svg

<svg xmlns="http://www.w3.org/2000/svg" width="16" height="16" viewBox="0 0 16 16">
  <g fill="none" fill-rule="evenodd">
    <polygon fill="#9AA7B0" fill-opacity=".8" points="7 1 3 5 7 5"/>
    <path fill="#9AA7B0" fill-opacity=".8" d="M7.4814,13.5977 C7.0294,13.1357 6.8614,12.2657 7.2034,11.5347 L8.7034,8.5467 L11.5244,7.2077 C11.8254,7.0667 12.1054,6.9997 12.3914,6.9997 C12.5604,6.9997 12.7714,7.0357 13.0004,7.1237 L13.0004,0.9997 L8.0004,0.9997 L8.0004,5.9997 L3.0004,5.9997 L3.0004,14.9997 L8.8404,14.9997 L7.4814,13.5977 Z"/>
    <polygon fill="#7CC1FD" points="9.841 14.587 11.255 16 14.589 16 14.562 14.563"/>
    <path fill="#7CC1FD" d="M9.90028571,9.90068571 L9.35628571,9.35611429 L9.35971429,13.2978286 C9.36257143,13.7241143 9.33285714,14.0778286 9.54942857,14.2938286 L9.84085714,14.5864 L14.562,14.5624 L9.90028571,9.90068571"/>
    <path fill="#5070A8" d="M9.35954286 13.298L9.35611429 9.35628571 8.10925714 11.9574286C7.96354286 12.2677143 7.90182857 12.6471429 8.32754286 13.0722857L9.54925714 14.294C9.33268571 14.0774286 9.3624 13.7242857 9.35954286 13.298M14.5861143 9.84154286L14.2941143 9.54897143C14.0775429 9.3324 13.7244 9.36211429 13.2981143 9.35925714L9.3564 9.35582857 9.90097143 9.90097143 14.5621143 14.5626857 16.0004 14.5889714 16.0004 11.2552571 14.5861143 9.84154286z"/>
    <path fill="#7CC1FD" d="M13.2976,9.35937143 L9.35645714,9.35594286 L11.9570286,8.10908571 C12.2678857,7.96337143 12.6473143,7.90222857 13.0724571,8.32737143 L14.2941714,9.54908571 C14.0776,9.33251429 13.7238857,9.36222857 13.2976,9.35937143"/>
  </g>
</svg>

<svg xmlns="http://www.w3.org/2000/svg" width="16" height="16" viewBox="0 0 16 16"><g fill="none" fill-rule="evenodd"><path fill="#9AA7B0" fill-opacity=".8" d="M7 1 3 5h4z"/><path fill="#9AA7B0" fill-opacity=".8" d="M7.481 13.598c-.452-.462-.62-1.332-.278-2.063l1.5-2.988 2.821-1.34c.301-.14.581-.207.867-.207.17 0 .38.036.61.124V1H8v5H3v9h5.84z"/><path fill="#7CC1FD" d="M9.841 14.587 11.255 16h3.334l-.027-1.437zM9.9 9.9l-.544-.544.004 3.942c.003.426-.027.78.19.996l.29.292 4.722-.024z"/><path fill="#5070A8" d="m9.36 13.298-.004-3.942-1.247 2.601c-.145.31-.207.69.219 1.115l1.221 1.222c-.216-.217-.187-.57-.19-.996m5.227-3.456-.292-.293c-.216-.217-.57-.187-.996-.19l-3.942-.003.545.545 4.661 4.662 1.438.026v-3.334z"/><path fill="#7CC1FD" d="m13.298 9.36-3.942-.004 2.601-1.247c.31-.146.69-.207 1.115.218l1.222 1.222c-.216-.216-.57-.187-.996-.19"/></g></svg>
